!!!COM: Bach, Johann Sebastian
!!!CDT: 1685/3/-1750/7/28
!!!OPR@@DE: Das wohltemperierte Klavier
!!!OPR@EN: The Well-Tempered Clavier
!!!OTL: The Well-Tempered Clavier, Book 1, Fugue 19 in A major
!!!SCT: BWV 864b
!!!parts: 3
!!!RWG: Between measures 23 and 25 of this fugue Bach switches the
!!!RWG: position of the mid and soprano voices.  This has necessitated
!!!RWG: a spine-path exchange in measure 25.
**kern	**kern	**kern
*staff2	*staff1	*staff1
*clefF4	*clefG2	*clefG2
*k[f#c#g#]	*k[f#c#g#]	*k[f#c#g#]
*M9/8	*M9/8	*M9/8
*A:	*A:	*A:
*MM54	*MM54	*MM54
=1	=1	=1
2.r	2.r	8a
.	.	8r
.	.	8r
.	.	8r
.	.	8g#L
.	.	8cc#J
4.r	4.r	8aL
.	.	8dd
.	.	8bJ
=2	=2	=2
2.r	8e	8eeL
.	8r	8cc#
.	8r	8ff#J
.	8r	8eeL
.	8c#L	8aa
.	8f#J	[8ddJ
4.r	8eL	8dd]L
.	8a	8cc#
.	8f#J	8dd#J
=3	=3	=3
2.r	8bL	8gg#L
.	8g#	8ee
.	8cc#J	8aaJ
.	8bL	4gg#
.	8ee	.
.	[8aJ	8ff#
4.r	8a]L	8bL
.	8g#	8ee
.	8bJ	[8ddJ
=4	=4	=4
8A	8eL	8dd]L
8r	8a	8cc#
8r	8f#J	8dd#J
8r	4.g#	8eeL
8G#L	.	8b
8c#J	.	[8eeJ
8AL	8cc#L	8ee]
8d	8a	4ff#
8BJ	8ddnJ	.
=5	=5	=5
8eL	8bL	4gg#
8c#	8ee	.
8f#J	[8ddJ	8aa
8eL	8dd]	4gg#
8a	4cc#	.
[8dJ	.	8ff#
8d]L	8bL	8gg#
8c#	8ee	[4aa
8d#J	8ff#J	.
=6	=6	=6
8E	8bL	8aa]L
8r	8ee	8gg#
8r	[8ddJ	8bbJ
8r	8dd]L	4ee
8C#L	16cc#	.
.	16b	.
8F#J	16cc#	8dd#
.	16aJ	.
8EL	8g#L	[4.ee
8A	8cc#	.
8F#J	8aJ	.
=7	=7	=7
8BL	8f#L	8ee]L
8G#	8b	8ddn
8c#J	[8aJ	8cc#J
8BL	8a]L	4dd
8e	8g#	.
[8AJ	8aJ	8cc#
8A]L	[4.d	[4.b
8G#	.	.
8BJ	.	.
=8	=8	=8
[4.C#	8d]L	8b]L
.	8c#	8a
.	8eJ	8cc#J
8C#]L	4.A	[4.f#
8AA	.	.
8DJ	.	.
8BBL	[4.d	16f#]L
.	.	16g#
8E	.	8.g#t
8EEJ	.	.
.	.	32f#
.	.	32g#J
=9	=9	=9
8AA	8d]L	8a
[4A	8c#	8r
.	8f#J	8r
8A]L	8BL	8r
8G#	8e	8g#L
8EJ	[8g#J	8cc#J
8F#L	8g#]L	8aL
8BB	8f#	8dd
8EJ	[8g#J	8bJ
=10	=10	=10
8C#L	8g#]L	8eeL
8F#	8a	8cc#
8DJ	8bJ	8ff#J
8AL	4.cc#	8eeL
8F#	.	8aa
8BJ	.	[8ddJ
8EL	4b	8dd]L
8A	.	8cc#
8F#J	[8a	8dd#J
=11	=11	=11
4c#	8a]L	[4.ee
.	8g#	.
8B	8cc#J	.
8A#L	8f#	8ee]L
8B	[4b	8ddn
8EJ	.	8ggnJ
[4.F#	8b]	8cc#L
.	4a	8ff#
.	.	8ddJ
=12	=12	=12
8F#]L	[4.g#	[4.b
8E#	.	.
8G#J	.	.
4AA	8g#]	8b]L
.	[4f#	8a
8BB	.	8ddJ
4C#	8f#]L	8g#L
.	8e#	8cc#
8CC#	[8g#J	8bJ
=13	=13	=13
8FF#	8g#]L	[4.a
8r	8f#	.
8r	8enJ	.
8r	4d	8a]L
8E#L	.	8g#
8AJ	[8c#	8f#J
8F#L	8c#]L	[4.dd
8B	8B	.
8G#J	8bJ	.
=14	=14	=14
8c#L	8e#	8dd]L
8A	4f#	8cc#
8dJ	.	[8ff#J
8c#L	8g#L	8ff#]L
8f#	8a#	8een
[8BJ	8bJ	8ddJ
8B]L	4.en	[4.cc#
8G#	.	.
8A#J	.	.
=15	=15	=15
8BL	4d	8cc#]L
8BB	.	8b
8EJ	8gn	8a#J
8DL	8f#	4b
8Gn	4e	.
8EJ	.	8cc#
4F#	4d	8f#L
.	.	8b
8FF#	8c#	8a#J
=16	=16	=16
8BB	8dL	8b
8r	8f#	[4dd
8r	8bJ	.
8r	4g#	8dd]L
8EL	.	8cc#
8AJ	8cc#	[8ff#J
8G#L	8bL	8ff#]L
8c#	8ee	8ee
8AJ	8cc#J	[8aaJ
=17	=17	=17
8d#L	[4.b	8aa]L
8B	.	16gg#
.	.	16ff#
8eJ	.	[8gg#J
[4.A	8b]L	8gg#]L
.	8a	8ff#
.	8cc#J	[8eeJ
8A]L	[4.f#	8ee]L
8B	.	8dd#
8F#J	.	8ff#J
=18	=18	=18
[4.G#	8f#]L	[4.b
.	8e	.
.	8g#J	.
8G#]L	4.c#	4b]
8C#	.	.
8F#J	.	[8a
8D#	8f#L	8a]
4E	8B	[4g#
.	8eJ	.
=19	=19	=19
[4.AA	4.c#	8g#]L
.	.	8f#
.	.	8aJ
8AA]L	4B	8d#L
8GG#	.	8b
8C#J	[8e	8g#J
8AA	4e]	8cc#
4BB	.	4f#
.	8d#	.
=20	=20	=20
8EE	8e	8eL
8r	8r	8ee
8r	8r	8bJ
4.r	8r	8cc#L
.	8aL	8ff#
.	8eJ	8cc#J
4.r	8f#L	[4.dd
.	8b	.
.	8f#J	.
=21	=21	=21
2.r	4g#	8dd]L
.	.	8b
.	8r	8eeJ
.	8eL	8cc#L
.	8a	8ff#
.	8f#J	8ddJ
4.r	8bL	8gg#L
.	8g#	8ee
.	8cc#J	8aaJ
=22	=22	=22
2.r	8a	4ff#
.	[4dd	.
.	.	8bb
.	8dd]L	8ee
.	8cc#	[4aa
.	8ff#J	.
4.r	8.bL	8aa]
.	.	4gg#
.	16ff#	.
.	16ee	.
.	16ddJ	.
=23	=23	=23
8AA	16cc#L	8aa
.	16dd	.
8r	16ee	4r
.	16cc#	.
8r	16b	.
.	16aJ	.
8r	16g#L	2.r
.	16a	.
8GG#L	16b	.
.	16g#	.
8C#J	16f#	.
.	16eJ	.
8AAL	16f#L	.
.	16e	.
8D	16f#	.
.	16a	.
8BBJ	16g#	.
.	16f#J	.
=24	=24	=24
8EL	16g#L	2.r
.	16b	.
8C#	16a	.
.	16g#	.
8F#J	16a	.
.	16bJ	.
8EL	16cc#L	.
.	16b	.
8A	16cc#	.
.	16dd	.
[8DJ	16ee	.
.	16ff#J	.
8D]L	16gg#L	4.r
.	16bb	.
8C#	16aa	.
.	16gg#	.
8D#J	16ff#	.
.	16aaJ	.
=25	=25	=25
8EL	16gg#L	8e
.	16aa	.
8F#	16bb	8r
.	16ff#	.
8G#J	16ee	8r
.	16ddJ	.
8A	8cc#L	8r
!! Care must be taken in processing the following spine-path exchange.
!! Note that the subject statement has already begun with "8e" at the
!! beginning of measure 25.
!!*	*x	*x
8r	8c#	8r
8r	8f#J	8r
8r	8eL	8r
8AAL	8a	8cc#L
8DJ	8f#J	8aJ
=26	=26	=26
8BBL	8bL	8ddL
8E	8g#	8b
8C#J	8cc#J	8eeJ
8F#L	8aL	8cc#L
8D	8dd	8ff#
8AJ	8cc#J	8eeJ
8F#L	8ff#	8aa
16B	4dd#	4ff#T
16A	.	.
16G#	.	.
16F#J	.	.
=27	=27	=27
16G#L	8ee	16eeL
16A	.	16ff#
16B	8r	16gg#
16G#	.	16ee
16F#	8r	16gg#
16EJ	.	16aaJ
16D#L	8r	8bb
16E	.	.
16F#	8d#L	8r
16D#	.	.
16C#	8g#J	8r
16BBJ	.	.
16C#L	8eL	4r
16BB	.	.
16C#	8a	.
16E	.	.
16D#	8f#J	8r
16C#J	.	.
=28	=28	=28
16D#L	8bL	2.r
16F#	.	.
16E	8g#	.
16D#	.	.
16E	8cc#J	.
16F#J	.	.
16G#L	8bL	.
16F#	.	.
16G#	8ee	.
16A	.	.
16B	[8aJ	.
16c#J	.	.
16d#L	8a]L	4.r
16f#	.	.
16e	8f#	.
16d#	.	.
16c#	8bJ	.
16BJ	.	.
=29	=29	=29
8eL	8g#	8r
8E	8r	16bbL
.	.	16aa
8AJ	8r	16gg#
.	.	16ff#J
8G#L	4.r	16eeL
.	.	16ff#
8e	.	16gg#
.	.	16ee
8AJ	.	16dd
.	.	16cc#J
8f#L	4.r	16ddL
.	.	16cc#
8B	.	16dd
.	.	16ff#
8g#J	.	16ee
.	.	16ddJ
=30	=30	=30
16aL	2.r	8cc#L
16f#	.	.
16e	.	8a
16d	.	.
16c#	.	8ddJ
16BJ	.	.
16AL	.	8cc#L
16B	.	.
16c#	.	8aa
16A	.	.
16Gn	.	8ddJ
16F#J	.	.
16GL	4.r	8bbL
16F#	.	.
16G	.	8ee
16B	.	.
16A	.	8ccc#J
16GJ	.	.
=31	=31	=31
16F#L	8r	8ddd
16Gn	.	.
16A	8AL	8r
16F#	.	.
16E	[8dJ	8r
16DJ	.	.
8.AL	8d]L	8r
.	8c#	8eL
16F#	.	.
16G	8f#J	8aJ
16AJ	.	.
16BL	8dL	8f#L
16A	.	.
16G	8gn	8b
16B	.	.
16A	8eJ	[8cc#J
16GJ	.	.
=32	=32	=32
16F#L	8aL	8cc#]L
16E	.	.
16D	8f#	8dd
16F#	.	.
16E	8bJ	[8ggnJ
16DJ	.	.
16C#L	8aL	8gg]L
16AA	.	.
16BB	8dd	8ff#
16C#	.	.
16D	[8gnJ	8eeJ
16EJ	.	.
16F#L	8g]L	8aL
16Gn	.	.
16A	8f#	8dd
16F#	.	.
16G	8eJ	8cc#J
16AJ	.	.
=33	=33	=33
8D	8f#	8ddL
8r	8r	16ff#
.	.	16ee
8r	8r	16dd
.	.	16cc#J
8r	16r	8b
.	16ddL	.
8C#L	16cc#	[4ee
.	16b	.
8F#J	16a#	.
.	16g#J	.
8DL	16f#L	8ee]
.	16cc#	.
8Gn	16b	[4dd
.	16an	.
8EJ	16gn	.
.	16f#J	.
=34	=34	=34
8A#L	16eL	8dd]
.	16b	.
8F#	16a#	4cc#
.	16g#	.
8BJ	16f#	.
.	16eJ	.
8G#L	8d	16r
.	.	16bL
8c#	4e	16a#
.	.	16b
8A#J	.	16cc#
.	.	16ddJ
8dL	8f#	16eeL
.	.	16dd
8B	4b	16ee
.	.	16ff#
[8eJ	.	16ggn
.	.	16eeJ
=35	=35	=35
8e]L	8cc#	16aa#L
.	.	16ff#
8d	4f#	16bb
.	.	16aan
8c#J	.	16ggn
.	.	16ff#J
8BL	8gnL	16eeL
.	.	16dd
8Gn	8e	16cc#
.	.	16b
8DJ	8f#J	16a#
.	.	16bJ
8EL	8B	16ggnL
.	.	16ff#
8F#	4A#	16ee
.	.	16dd
8FF#J	.	16cc#
.	.	16bJ
=36	=36	=36
16BBL	8r	8b
16F#	.	.
16B	8f#L	[4dd
16An	.	.
16G#	8bJ	.
16F#J	.	.
16EL	[4.g#	8dd]L
16F#	.	.
16E	.	8b
16D	.	.
16C#	.	8eeJ
16BBJ	.	.
16AAL	8g#]L	8cc#L
16BB	.	.
16AA	8cc#	8ff#
16GG#	.	.
16FF#	[8aJ	8dd#J
16EEJ	.	.
=37	=37	=37
16DD#L	8a]L	[4.b
16BB	.	.
16E	8g#	.
16D#	.	.
16C#	8d#J	.
16BBJ	.	.
16C#L	[4.e	8b]L
16G#	.	.
16c#	.	8g#
16B	.	.
16A	.	8cc#J
16G#J	.	.
16F#L	8e]L	[4.a
16G#	.	.
16F#	8c#	.
16E	.	.
16D#	8f#J	.
16C#J	.	.
=38	=38	=38
16BBL	8d#L	8a]
16C#	.	.
16BB	8g#	[4b
16AA	.	.
16GG#	8e#J	.
16FF#J	.	.
16EE#L	[4.c#	8b]L
16C#	.	.
16F#	.	8a
16En	.	.
16Dn	.	8e#J
16C#J	.	.
16DL	8c#]L	[4.f#
16E	.	.
16D	8A	.
16C#	.	.
16BB	8dnJ	.
16AAJ	.	.
=39	=39	=39
16GG#L	[4.B	8f#]L
16AA	.	.
16GG#	.	8d#
16FF#	.	.
16EE#	.	8g#J
16DD#J	.	.
8CC#L	8B]L	16e#L
.	.	16c#
8AA	8A	16d#
.	.	16e#
8DnJ	8BJ	16f#
.	.	16g#J
8C#L	8E#	16aL
.	.	16f#
8F#	8r	16g#
.	.	16a
8D#J	8r	16b
.	.	16cc#J
=40	=40	=40
8G#L	2.r	16ddnL
.	.	16b
8E#	.	16cc#
.	.	16dd#
8AJ	.	16ee#
.	.	16ff#J
8F#L	.	16ddnL
.	.	16een
8B	.	16dd
.	.	16cc#
8G#J	.	16b
.	.	16aJ
8c#L	4.r	16g#L
.	.	16b
8A	.	16a
.	.	16g#
[8dJ	.	16f#
.	.	16e#J
=41	=41	=41
16d]L	8r	[4.b
16e	.	.
16d	8g#L	.
16c#	.	.
16B	8d#J	.
16AJ	.	.
8G#L	8e#L	16b]L
.	.	16a
8E#	8c#	16b
.	.	16g#
8F#J	[8f#J	[8aJ
8BBL	8f#]	16a]L
.	.	16b
8C#	4e#	8.g#
8CC#J	.	.
.	.	16f#J
=42	=42	=42
8FF#L	8f#	8f#L
8AA	8r	8c#
8FF#J	8r	8f#J
4C#	8r	4e
.	8G#L	.
8AA	8c#J	8a
8DL	8AL	8f#L
8BB	8d	8b
8EJ	8BJ	8g#J
=43	=43	=43
8C#L	8eL	8cc#L
8F#	8c#	8a
8DJ	8f#J	[8ddJ
8AL	8eL	8dd]L
8AA	8a	8cc#
8BBJ	[8dJ	8bJ
8C#L	8d]L	8e
8F#	8c#	[4a
8BBJ	8d#J	.
=44	=44	=44
4E	8eL	8a]L
.	8B	8g#
8r	[8dnJ	8bJ
8r	8d]L	8e
8C#L	8c#	4a
8F#J	8d#J	.
8EL	4e	8g#L
8A	.	8cc#
8F#J	[8f#	8aJ
=45	=45	=45
8BL	8f#]L	4.dd
8G#	8b	.
8c#J	[8eJ	.
8AL	8e]L	8cc#
8d	8d	[4ff#
8F#J	8c#J	.
8G#L	8BL	8ff#]L
8E	8g#	8ee
8G#J	8bJ	[8ddJ
=46	=46	=46
8AL	[4.e	8dd]
8AA	.	[4cc#
8C#J	.	.
4DD	8e]L	8cc#]L
.	8d	8b
[8D	8f#J	[8aJ
8D]L	[4.B	8a]L
8E	.	8g#
8BBJ	.	8bJ
=47	=47	=47
[4.C#	8B]L	[4.ee
.	8A	.
.	8c#J	.
8C#]L	4.f#	4ee]
8FF#	.	.
8BBJ	.	[8dd
8GG#	8bL	8dd]
4AA	8e	[4cc#
.	8aJ	.
=48	=48	=48
8DD	4.f#	8cc#]L
[4D	.	8b
.	.	8ddJ
8D]L	4e	8g#L
8C#	.	8ee
8F#J	[8a	8cc#J
8DL	8a]L	8ff#
8E	8a	4b
8EEJ	8g#J	.
=49	=49	=49
8AAL	8a	8aL
8AA	8r	16ee
.	.	16dd
8DJ	8r	16cc#
.	.	16bJ
8C#L	4.r	16aL
.	.	16b
8A	.	16cc#
.	.	16a
8DJ	.	16gn
.	.	16f#J
8BL	4.r	16gL
.	.	16f#
8E	.	16g
.	.	16b
8c#J	.	16a
.	.	16gJ
=50	=50	=50
16dL	2.r	8f#L
16c#	.	.
16B	.	8d
16A	.	.
16G#	.	8aJ
16F#J	.	.
16EL	.	8g#L
16F#	.	.
16G#	.	8ee
16E	.	.
16D	.	8aJ
16C#J	.	.
16DL	4.r	8ff#L
16C#	.	.
16D	.	8b
16F#	.	.
16E	.	8gg#J
16DJ	.	.
=51	=51	=51
16C#L	8r	8aa
16BB	.	.
16AA	[4cc#	[4ee
16BB	.	.
16C#	.	.
16AAJ	.	.
16DL	8cc#]L	8ee]L
16C#	.	.
16D	8b	8dd
16E	.	.
16C#	[8aJ	8ff#J
16DJ	.	.
16EL	8a]L	[4.b
16D	.	.
16E	8g#	.
16F#	.	.
*	*strophe	*
*	*^	*
*	*S/sic	*S/ossia	*
16D	8exxJ	8f#xxJ	.
16EJ	.	.	.
*	*v	*v	*
*	*Xstrophe	*
=52	=52	=52
16F#L	8c#L	8b]L
16G#	.	.
16F#	8d	8a
16E	.	.
16D	[8eJ	8gnJ
16C#J	.	.
16DL	8e]L	4.f#
16E	.	.
16D	8A	.
16C#	.	.
16BB	[8dJ	.
16AAJ	.	.
16GG#L	8d]	8bL
16BB	.	.
16AA	[4c#	8e
16GG#	.	.
16FF#	.	8aJ
16EEJ	.	.
=53	=53	=53
16FF#L	8c#]L	[4.d
16AA	.	.
16GG#	8B	.
16FF#	.	.
16EE	8dJ	.
16DDJ	.	.
*	*strophe	*
*	*^	*
*	*S/sic	*S/ossia	*
16CC#L	8G#xxL	8ExxL	8d]L
16C#	.	.	.
*	*v	*v	*
*	*Xstrophe	*
16D	8e	8c#
16E	.	.
16F#	8c#J	[8aJ
16G#J	.	.
16AL	8f#	8a]L
16D	.	.
8E	4B	8a
8EEJ	.	8g#J
=54	=54	=54
2.AA;	2.c#;	2.a;
==	==	==
*-	*-	*-
!!!OTA: Das wohltemperirte Clavier
!!!OCY: Deutschland
!!!PPP: Coethen; Cothen
!!!ODT: <1722//
!!!PDT: 1722
!!!AFR: fuga; fugue
!!!AST: polyphony
!!!AMT: compound triple
!!!SCA: Bach-Werke-Verzeichnis
!!!YOR: Bach-Gesellschaft Ausgabe, Band 14
!!!YOO: Breitkopf und Härtel
!!!YOY: 1866
!!!YOE: Franz Kroll (1820-1877)
!!!AIN: cemba; clavi
!!!YEC: Copyright 1994, David Huron
!!!YEM: Rights to all derivative electronic formats reserved.
!!!ENC: David Huron
!!!END: 1986/11/22
!!!EED: David Huron
!!!YER: 1994/08/10
!!!EED2: Craig Stuart Sapp (notational niceties)
!!!EEV: 2020/09/19
!!!EFL: 19/48
